X: 43396
T: Wylam Dogknobbler
R: jig
M: 6/8
K: Dmajor
|:AG|"D"FGA ABc|"D" def dAA|"D" afd def|"A7" ecA A2G|
"D"FGA ABc|"D"def d2A|"A7"afd efe|"D" dAFD:|
|:CD|"Em"EGF GEE|"Em"EAB Aef|"D" afd def|"A7" eAA A2G|
"D" FGA ABc|"D"def dAA|"D" afd "A" efe|"D" dAF D:|

